X: 1
T:Ostrup Valsen
R:Waltz
O:Denmark
M:3/4
K:G
Bc |\
d2 dBGB | g2 f2e2 | d2 dBGB | [D4A4] AB |\
c2 cAFA | e2 d2c2 | B2 BABc | d4 Bc |
d2 dBGB | g2 f2e2 | d2dBGB | [D4A4] AB |\
c2 cAFA | e2 d2B2 | d2c2[A2c2] | [G,2G2] z2 :|
K:D
|: A2 |\
A2 f2d2 | [A4e4] A2 | A2 a2g2 [A4f4] f2 | \
e2 edef | {f}g2 e2c2 | d2dcde | f2 d2A2 |
[D2A2][A2f2][D2d2] | [A4e4]A2 | \
A2a2[e2g2] | {e}[f4A4] f2 |\
e2eceg | b2a2f2 | a2g2[c2e2] | [D2d2]z2:|
